icon-themes/sifr_svg/cmd/sc_wrapleft.svg

<svg viewBox="0 0 16 16" xmlns="http://www.w3.org/2000/svg"><g fill="#555753"><path d="m15 1v2h-14v-2zm0 3v8h-8v-8zm-9 0v2h-5v-2zm8 1h-6v6h6zm-8 2v2h-5v-2zm0 3v2h-5v-2zm9 3v2h-14v-2z"/><path d="m14 5v6h-6v-6z" opacity=".35"/></g></svg>

<svg xmlns="http://www.w3.org/2000/svg" viewBox="0 0 16 16">
  <path
     style="fill:#555753"
     d="M 15,1 V 3 H 1 V 1 Z m 0,3 v 8 H 7 V 4 Z M 6,4 V 6 H 1 V 4 Z m 8,1 H 8 v 6 h 6 z M 6,7 V 9 H 1 V 7 Z m 0,3 v 2 H 1 v -2 z m 9,3 v 2 H 1 v -2 z"
     />
  <path
     style="opacity:0.35;fill:#555753"
     d="m 14,5 v 6 H 8 V 5 Z"
     />
</svg>
